X:493
T:Polska # 493
T: efter Melker Andersson
M:3/4
L:1/16
Q: 120
K: G
| d4 d3c B3c| d4d2ef g4| e4 e3d B3c| A4 c3B G4| d4 d3c B3c| d4d2ef g4|
e3f e3d B3c| A2FA G8:: c4 e3d B3c| A4c3B G3B| c3c e3d B3c|
A3A c3B G3B| d4 d3c B3c| d4d2ef g4| e3f e3d B3c| A2FA G8 :|

